images/50971543.svg

<?xml version="1.0" encoding="UTF-8"?>
<svg xmlns="http://www.w3.org/2000/svg" xmlns:xlink="http://www.w3.org/1999/xlink" width="300pt" height="300pt" viewBox="0 0 300 300" version="1.1">
<defs>
<g>
<symbol overflow="visible" id="glyph0-0">
<path style="stroke:none;" d="M 0.453125 1.59375 L 0.453125 -6.34375 L 4.953125 -6.34375 L 4.953125 1.59375 Z M 0.953125 1.09375 L 4.453125 1.09375 L 4.453125 -5.84375 L 0.953125 -5.84375 Z M 0.953125 1.09375 "/>
</symbol>
<symbol overflow="visible" id="glyph0-1">
<path style="stroke:none;" d="M 0.890625 -6.5625 L 4.65625 -6.5625 L 4.65625 -5.8125 L 1.765625 -5.8125 L 1.765625 -3.875 L 4.375 -3.875 L 4.375 -3.140625 L 1.765625 -3.140625 L 1.765625 0 L 0.890625 0 Z M 0.890625 -6.5625 "/>
</symbol>
<symbol overflow="visible" id="glyph0-2">
<path style="stroke:none;" d="M 0.890625 -6.5625 L 2.078125 -6.5625 L 4.984375 -1.078125 L 4.984375 -6.5625 L 5.84375 -6.5625 L 5.84375 0 L 4.65625 0 L 1.75 -5.484375 L 1.75 0 L 0.890625 0 Z M 0.890625 -6.5625 "/>
</symbol>
<symbol overflow="visible" id="glyph0-3">
<path style="stroke:none;" d="M 0.890625 -6.5625 L 1.765625 -6.5625 L 1.765625 -3.875 L 5 -3.875 L 5 -6.5625 L 5.890625 -6.5625 L 5.890625 0 L 5 0 L 5 -3.125 L 1.765625 -3.125 L 1.765625 0 L 0.890625 0 Z M 0.890625 -6.5625 "/>
</symbol>
<symbol overflow="visible" id="glyph0-4">
<path style="stroke:none;" d="M 3.546875 -5.953125 C 2.898438 -5.953125 2.382812 -5.710938 2 -5.234375 C 1.625 -4.753906 1.4375 -4.101562 1.4375 -3.28125 C 1.4375 -2.445312 1.625 -1.789062 2 -1.3125 C 2.382812 -0.832031 2.898438 -0.59375 3.546875 -0.59375 C 4.191406 -0.59375 4.703125 -0.832031 5.078125 -1.3125 C 5.453125 -1.789062 5.640625 -2.445312 5.640625 -3.28125 C 5.640625 -4.101562 5.453125 -4.753906 5.078125 -5.234375 C 4.703125 -5.710938 4.191406 -5.953125 3.546875 -5.953125 Z M 3.546875 -6.6875 C 4.460938 -6.6875 5.195312 -6.375 5.75 -5.75 C 6.300781 -5.132812 6.578125 -4.3125 6.578125 -3.28125 C 6.578125 -2.238281 6.300781 -1.410156 5.75 -0.796875 C 5.195312 -0.179688 4.460938 0.125 3.546875 0.125 C 2.617188 0.125 1.878906 -0.179688 1.328125 -0.796875 C 0.773438 -1.410156 0.5 -2.238281 0.5 -3.28125 C 0.5 -4.3125 0.773438 -5.132812 1.328125 -5.75 C 1.878906 -6.375 2.617188 -6.6875 3.546875 -6.6875 Z M 3.546875 -6.6875 "/>
</symbol>
</g>
</defs>
<g id="surface23085">
<rect x="0" y="0" width="300" height="300" style="fill:rgb(100%,100%,100%);fill-opacity:1;stroke:none;"/>
<path style="fill:none;stroke-width:1.2;stroke-linecap:butt;stroke-linejoin:miter;stroke:rgb(20%,80%,80%);stroke-opacity:1;stroke-miterlimit:10;" d="M 71.125 98.726562 L 80.765625 103.015625 "/>
<path style="fill:none;stroke-width:1.2;stroke-linecap:butt;stroke-linejoin:miter;stroke:rgb(0%,0%,0%);stroke-opacity:1;stroke-miterlimit:10;" d="M 80.765625 103.015625 L 90.40625 107.300781 "/>
<path style=" stroke:none;fill-rule:nonzero;fill:rgb(100%,100%,100%);fill-opacity:1;" d="M 65.125 93.226562 L 71.125 93.226562 L 71.125 104.226562 L 65.125 104.226562 Z M 65.125 93.226562 "/>
<g style="fill:rgb(20%,80%,80%);fill-opacity:1;">
  <use xlink:href="#glyph0-1" x="65.125" y="101.889648"/>
</g>
<path style="fill:none;stroke-width:1.2;stroke-linecap:butt;stroke-linejoin:miter;stroke:rgb(0%,0%,0%);stroke-opacity:1;stroke-miterlimit:10;" d="M 90.40625 107.300781 L 107.472656 94.894531 "/>
<path style="fill:none;stroke-width:1.2;stroke-linecap:butt;stroke-linejoin:miter;stroke:rgb(0%,0%,0%);stroke-opacity:1;stroke-miterlimit:10;" d="M 95.03125 110.078125 L 108.683594 100.152344 "/>
<path style="fill:none;stroke-width:1.2;stroke-linecap:butt;stroke-linejoin:miter;stroke:rgb(0%,0%,0%);stroke-opacity:1;stroke-miterlimit:10;" d="M 92.617188 128.285156 L 90.40625 107.300781 "/>
<path style="fill:none;stroke-width:1.2;stroke-linecap:butt;stroke-linejoin:miter;stroke:rgb(0%,0%,0%);stroke-opacity:1;stroke-miterlimit:10;" d="M 107.472656 94.894531 L 126.75 103.46875 "/>
<path style="fill:none;stroke-width:1.2;stroke-linecap:butt;stroke-linejoin:miter;stroke:rgb(0%,0%,0%);stroke-opacity:1;stroke-miterlimit:10;" d="M 126.75 103.46875 L 128.960938 124.453125 "/>
<path style="fill:none;stroke-width:1.2;stroke-linecap:butt;stroke-linejoin:miter;stroke:rgb(0%,0%,0%);stroke-opacity:1;stroke-miterlimit:10;" d="M 122.035156 106.089844 L 123.804688 122.878906 "/>
<path style="fill:none;stroke-width:1.2;stroke-linecap:butt;stroke-linejoin:miter;stroke:rgb(0%,0%,0%);stroke-opacity:1;stroke-miterlimit:10;" d="M 128.960938 124.453125 L 111.894531 136.863281 "/>
<path style="fill:none;stroke-width:1.2;stroke-linecap:butt;stroke-linejoin:miter;stroke:rgb(0%,0%,0%);stroke-opacity:1;stroke-miterlimit:10;" d="M 128.960938 124.453125 L 148.242188 133.03125 "/>
<path style="fill:none;stroke-width:1.2;stroke-linecap:butt;stroke-linejoin:miter;stroke:rgb(0%,0%,0%);stroke-opacity:1;stroke-miterlimit:10;" d="M 111.894531 136.863281 L 92.617188 128.285156 "/>
<path style="fill:none;stroke-width:1.2;stroke-linecap:butt;stroke-linejoin:miter;stroke:rgb(0%,0%,0%);stroke-opacity:1;stroke-miterlimit:10;" d="M 111.984375 131.46875 L 96.5625 124.609375 "/>
<path style="fill:none;stroke-width:1.2;stroke-linecap:butt;stroke-linejoin:miter;stroke:rgb(0%,0%,0%);stroke-opacity:1;stroke-miterlimit:10;" d="M 148.242188 133.03125 L 157.378906 127.753906 "/>
<path style="fill:none;stroke-width:1.2;stroke-linecap:butt;stroke-linejoin:miter;stroke:rgb(0%,0%,100%);stroke-opacity:1;stroke-miterlimit:10;" d="M 157.378906 127.753906 L 166.511719 122.476562 "/>
<path style="fill:none;stroke-width:1.2;stroke-linecap:butt;stroke-linejoin:miter;stroke:rgb(0%,0%,0%);stroke-opacity:1;stroke-miterlimit:10;" d="M 152.636719 153.667969 L 148.242188 133.03125 "/>
<path style="fill:none;stroke-width:1.2;stroke-linecap:butt;stroke-linejoin:miter;stroke:rgb(0%,0%,0%);stroke-opacity:1;stroke-miterlimit:10;" d="M 157.050781 150.570312 L 153.539062 134.0625 "/>
<path style="fill:none;stroke-width:1.2;stroke-linecap:butt;stroke-linejoin:miter;stroke:rgb(0%,0%,100%);stroke-opacity:1;stroke-miterlimit:10;" d="M 166.511719 122.476562 L 174.355469 129.53125 "/>
<path style="fill:none;stroke-width:1.2;stroke-linecap:butt;stroke-linejoin:miter;stroke:rgb(0%,0%,0%);stroke-opacity:1;stroke-miterlimit:10;" d="M 174.355469 129.53125 L 182.199219 136.589844 "/>
<path style=" stroke:none;fill-rule:nonzero;fill:rgb(100%,100%,100%);fill-opacity:1;" d="M 159.511719 116.976562 L 173.511719 116.976562 L 173.511719 127.976562 L 159.511719 127.976562 Z M 159.511719 116.976562 "/>
<g style="fill:rgb(0%,0%,100%);fill-opacity:1;">
  <use xlink:href="#glyph0-2" x="159.511719" y="125.639648"/>
  <use xlink:href="#glyph0-3" x="166.489258" y="125.639648"/>
</g>
<path style="fill:none;stroke-width:1.2;stroke-linecap:butt;stroke-linejoin:miter;stroke:rgb(0%,0%,0%);stroke-opacity:1;stroke-miterlimit:10;" d="M 182.199219 136.589844 L 177.910156 146.226562 "/>
<path style="fill:none;stroke-width:1.2;stroke-linecap:butt;stroke-linejoin:miter;stroke:rgb(0%,0%,100%);stroke-opacity:1;stroke-miterlimit:10;" d="M 177.910156 146.226562 L 173.621094 155.867188 "/>
<path style="fill:none;stroke-width:1.2;stroke-linecap:butt;stroke-linejoin:miter;stroke:rgb(0%,0%,0%);stroke-opacity:1;stroke-miterlimit:10;" d="M 176.804688 136.5 L 173.375 144.210938 "/>
<path style="fill:none;stroke-width:1.2;stroke-linecap:butt;stroke-linejoin:miter;stroke:rgb(0%,0%,100%);stroke-opacity:1;stroke-miterlimit:10;" d="M 173.375 144.210938 L 169.941406 151.921875 "/>
<path style="fill:none;stroke-width:1.2;stroke-linecap:butt;stroke-linejoin:miter;stroke:rgb(0%,0%,0%);stroke-opacity:1;stroke-miterlimit:10;" d="M 182.199219 136.589844 L 202.835938 132.195312 "/>
<path style="fill:none;stroke-width:1.2;stroke-linecap:butt;stroke-linejoin:miter;stroke:rgb(0%,0%,100%);stroke-opacity:1;stroke-miterlimit:10;" d="M 173.621094 155.867188 L 163.128906 154.769531 "/>
<path style="fill:none;stroke-width:1.2;stroke-linecap:butt;stroke-linejoin:miter;stroke:rgb(0%,0%,0%);stroke-opacity:1;stroke-miterlimit:10;" d="M 163.128906 154.769531 L 152.636719 153.667969 "/>
<path style=" stroke:none;fill-rule:nonzero;fill:rgb(100%,100%,100%);fill-opacity:1;" d="M 170.621094 150.367188 L 177.621094 150.367188 L 177.621094 161.367188 L 170.621094 161.367188 Z M 170.621094 150.367188 "/>
<g style="fill:rgb(0%,0%,100%);fill-opacity:1;">
  <use xlink:href="#glyph0-2" x="170.621094" y="159.030273"/>
</g>
<path style="fill:none;stroke-width:1.2;stroke-linecap:butt;stroke-linejoin:miter;stroke:rgb(0%,0%,0%);stroke-opacity:1;stroke-miterlimit:10;" d="M 152.636719 153.667969 L 138.523438 169.355469 "/>
<path style="fill:none;stroke-width:1.2;stroke-linecap:butt;stroke-linejoin:miter;stroke:rgb(0%,0%,0%);stroke-opacity:1;stroke-miterlimit:10;" d="M 138.523438 169.355469 L 117.882812 164.972656 "/>
<path style="fill:none;stroke-width:1.2;stroke-linecap:butt;stroke-linejoin:miter;stroke:rgb(0%,0%,0%);stroke-opacity:1;stroke-miterlimit:10;" d="M 135.425781 173.773438 L 118.914062 170.269531 "/>
<path style="fill:none;stroke-width:1.2;stroke-linecap:butt;stroke-linejoin:miter;stroke:rgb(0%,0%,0%);stroke-opacity:1;stroke-miterlimit:10;" d="M 145.050781 189.421875 L 138.523438 169.355469 "/>
<path style="fill:none;stroke-width:1.2;stroke-linecap:butt;stroke-linejoin:miter;stroke:rgb(0%,0%,0%);stroke-opacity:1;stroke-miterlimit:10;" d="M 117.882812 164.972656 L 107.324219 146.703125 "/>
<path style="fill:none;stroke-width:1.2;stroke-linecap:butt;stroke-linejoin:miter;stroke:rgb(0%,0%,0%);stroke-opacity:1;stroke-miterlimit:10;" d="M 103.765625 180.660156 L 117.882812 164.972656 "/>
<path style="fill:none;stroke-width:1.2;stroke-linecap:butt;stroke-linejoin:miter;stroke:rgb(0%,0%,0%);stroke-opacity:1;stroke-miterlimit:10;" d="M 107.324219 146.703125 L 86.6875 151.097656 "/>
<path style="fill:none;stroke-width:1.2;stroke-linecap:butt;stroke-linejoin:miter;stroke:rgb(0%,0%,0%);stroke-opacity:1;stroke-miterlimit:10;" d="M 106.292969 152 L 89.785156 155.515625 "/>
<path style="fill:none;stroke-width:1.2;stroke-linecap:butt;stroke-linejoin:miter;stroke:rgb(0%,0%,0%);stroke-opacity:1;stroke-miterlimit:10;" d="M 86.6875 151.097656 L 85.585938 161.589844 "/>
<path style="fill:none;stroke-width:1.2;stroke-linecap:butt;stroke-linejoin:miter;stroke:rgb(0%,0%,100%);stroke-opacity:1;stroke-miterlimit:10;" d="M 85.585938 161.589844 L 84.488281 172.082031 "/>
<path style="fill:none;stroke-width:1.2;stroke-linecap:butt;stroke-linejoin:miter;stroke:rgb(0%,0%,0%);stroke-opacity:1;stroke-miterlimit:10;" d="M 86.6875 151.097656 L 71 136.984375 "/>
<path style="fill:none;stroke-width:1.2;stroke-linecap:butt;stroke-linejoin:miter;stroke:rgb(0%,0%,100%);stroke-opacity:1;stroke-miterlimit:10;" d="M 84.488281 172.082031 L 94.128906 176.371094 "/>
<path style="fill:none;stroke-width:1.2;stroke-linecap:butt;stroke-linejoin:miter;stroke:rgb(0%,0%,0%);stroke-opacity:1;stroke-miterlimit:10;" d="M 94.128906 176.371094 L 103.765625 180.660156 "/>
<path style=" stroke:none;fill-rule:nonzero;fill:rgb(100%,100%,100%);fill-opacity:1;" d="M 77.488281 166.582031 L 91.488281 166.582031 L 91.488281 177.582031 L 77.488281 177.582031 Z M 77.488281 166.582031 "/>
<g style="fill:rgb(0%,0%,100%);fill-opacity:1;">
  <use xlink:href="#glyph0-2" x="77.488281" y="175.245117"/>
  <use xlink:href="#glyph0-3" x="84.46582" y="175.245117"/>
</g>
<path style="fill:none;stroke-width:1.2;stroke-linecap:butt;stroke-linejoin:miter;stroke:rgb(0%,0%,0%);stroke-opacity:1;stroke-miterlimit:10;" d="M 103.765625 180.660156 L 107.03125 190.691406 "/>
<path style="fill:none;stroke-width:1.2;stroke-linecap:butt;stroke-linejoin:miter;stroke:rgb(0%,0%,100%);stroke-opacity:1;stroke-miterlimit:10;" d="M 107.03125 190.691406 L 110.292969 200.726562 "/>
<path style="fill:none;stroke-width:1.2;stroke-linecap:butt;stroke-linejoin:miter;stroke:rgb(0%,0%,0%);stroke-opacity:1;stroke-miterlimit:10;" d="M 109.140625 181.128906 L 111.75 189.15625 "/>
<path style="fill:none;stroke-width:1.2;stroke-linecap:butt;stroke-linejoin:miter;stroke:rgb(0%,0%,100%);stroke-opacity:1;stroke-miterlimit:10;" d="M 111.75 189.15625 L 114.363281 197.183594 "/>
<path style="fill:none;stroke-width:1.2;stroke-linecap:butt;stroke-linejoin:miter;stroke:rgb(0%,0%,100%);stroke-opacity:1;stroke-miterlimit:10;" d="M 110.292969 200.726562 L 120.613281 202.914062 "/>
<path style="fill:none;stroke-width:1.2;stroke-linecap:butt;stroke-linejoin:miter;stroke:rgb(0%,0%,0%);stroke-opacity:1;stroke-miterlimit:10;" d="M 120.613281 202.914062 L 130.933594 205.105469 "/>
<path style=" stroke:none;fill-rule:nonzero;fill:rgb(100%,100%,100%);fill-opacity:1;" d="M 107.292969 195.226562 L 114.292969 195.226562 L 114.292969 206.226562 L 107.292969 206.226562 Z M 107.292969 195.226562 "/>
<g style="fill:rgb(0%,0%,100%);fill-opacity:1;">
  <use xlink:href="#glyph0-2" x="107.292969" y="203.889648"/>
</g>
<path style="fill:none;stroke-width:1.2;stroke-linecap:butt;stroke-linejoin:miter;stroke:rgb(0%,0%,0%);stroke-opacity:1;stroke-miterlimit:10;" d="M 130.933594 205.105469 L 145.050781 189.421875 "/>
<path style="fill:none;stroke-width:1.2;stroke-linecap:butt;stroke-linejoin:miter;stroke:rgb(0%,0%,0%);stroke-opacity:1;stroke-miterlimit:10;" d="M 128.65625 200.214844 L 139.945312 187.667969 "/>
<path style="fill:none;stroke-width:1.2;stroke-linecap:butt;stroke-linejoin:miter;stroke:rgb(0%,0%,0%);stroke-opacity:1;stroke-miterlimit:10;" d="M 71 136.984375 L 75.382812 116.34375 "/>
<path style="fill:none;stroke-width:1.2;stroke-linecap:butt;stroke-linejoin:miter;stroke:rgb(0%,0%,0%);stroke-opacity:1;stroke-miterlimit:10;" d="M 66.582031 133.890625 L 70.085938 117.375 "/>
<path style="fill:none;stroke-width:1.2;stroke-linecap:butt;stroke-linejoin:miter;stroke:rgb(0%,0%,0%);stroke-opacity:1;stroke-miterlimit:10;" d="M 50.933594 143.511719 L 71 136.984375 "/>
<path style="fill:none;stroke-width:1.2;stroke-linecap:butt;stroke-linejoin:miter;stroke:rgb(0%,0%,0%);stroke-opacity:1;stroke-miterlimit:10;" d="M 75.382812 116.34375 L 59.695312 102.230469 "/>
<path style="fill:none;stroke-width:1.2;stroke-linecap:butt;stroke-linejoin:miter;stroke:rgb(0%,0%,0%);stroke-opacity:1;stroke-miterlimit:10;" d="M 59.695312 102.230469 L 39.628906 108.753906 "/>
<path style="fill:none;stroke-width:1.2;stroke-linecap:butt;stroke-linejoin:miter;stroke:rgb(0%,0%,0%);stroke-opacity:1;stroke-miterlimit:10;" d="M 59.226562 107.601562 L 43.171875 112.824219 "/>
<path style="fill:none;stroke-width:1.2;stroke-linecap:butt;stroke-linejoin:miter;stroke:rgb(0%,0%,0%);stroke-opacity:1;stroke-miterlimit:10;" d="M 39.628906 108.753906 L 35.25 129.398438 "/>
<path style="fill:none;stroke-width:1.2;stroke-linecap:butt;stroke-linejoin:miter;stroke:rgb(0%,0%,0%);stroke-opacity:1;stroke-miterlimit:10;" d="M 35.25 129.398438 L 50.933594 143.511719 "/>
<path style="fill:none;stroke-width:1.2;stroke-linecap:butt;stroke-linejoin:miter;stroke:rgb(0%,0%,0%);stroke-opacity:1;stroke-miterlimit:10;" d="M 40.140625 127.117188 L 52.6875 138.410156 "/>
<path style="fill:none;stroke-width:1.2;stroke-linecap:butt;stroke-linejoin:miter;stroke:rgb(0%,0%,0%);stroke-opacity:1;stroke-miterlimit:10;" d="M 202.835938 132.195312 L 216.960938 147.871094 "/>
<path style="fill:none;stroke-width:1.2;stroke-linecap:butt;stroke-linejoin:miter;stroke:rgb(0%,0%,0%);stroke-opacity:1;stroke-miterlimit:10;" d="M 207.9375 130.4375 L 219.234375 142.980469 "/>
<path style="fill:none;stroke-width:1.2;stroke-linecap:butt;stroke-linejoin:miter;stroke:rgb(0%,0%,0%);stroke-opacity:1;stroke-miterlimit:10;" d="M 209.351562 112.125 L 202.835938 132.195312 "/>
<path style="fill:none;stroke-width:1.2;stroke-linecap:butt;stroke-linejoin:miter;stroke:rgb(0%,0%,0%);stroke-opacity:1;stroke-miterlimit:10;" d="M 216.960938 147.871094 L 237.597656 143.476562 "/>
<path style="fill:none;stroke-width:1.2;stroke-linecap:butt;stroke-linejoin:miter;stroke:rgb(0%,0%,0%);stroke-opacity:1;stroke-miterlimit:10;" d="M 237.597656 143.476562 L 244.113281 123.40625 "/>
<path style="fill:none;stroke-width:1.2;stroke-linecap:butt;stroke-linejoin:miter;stroke:rgb(0%,0%,0%);stroke-opacity:1;stroke-miterlimit:10;" d="M 233.527344 139.9375 L 238.738281 123.882812 "/>
<path style="fill:none;stroke-width:1.2;stroke-linecap:butt;stroke-linejoin:miter;stroke:rgb(0%,0%,0%);stroke-opacity:1;stroke-miterlimit:10;" d="M 244.113281 123.40625 L 254.429688 121.210938 "/>
<path style="fill:none;stroke-width:1.2;stroke-linecap:butt;stroke-linejoin:miter;stroke:rgb(100%,0%,0%);stroke-opacity:1;stroke-miterlimit:10;" d="M 254.429688 121.210938 L 264.75 119.011719 "/>
<path style="fill:none;stroke-width:1.2;stroke-linecap:butt;stroke-linejoin:miter;stroke:rgb(0%,0%,0%);stroke-opacity:1;stroke-miterlimit:10;" d="M 244.113281 123.40625 L 229.988281 107.730469 "/>
<path style=" stroke:none;fill-rule:nonzero;fill:rgb(100%,100%,100%);fill-opacity:1;" d="M 257.75 113.511719 L 272.75 113.511719 L 272.75 124.511719 L 257.75 124.511719 Z M 257.75 113.511719 "/>
<g style="fill:rgb(100%,0%,0%);fill-opacity:1;">
  <use xlink:href="#glyph0-4" x="257.75" y="122.174805"/>
  <use xlink:href="#glyph0-3" x="265.091797" y="122.174805"/>
</g>
<path style="fill:none;stroke-width:1.2;stroke-linecap:butt;stroke-linejoin:miter;stroke:rgb(0%,0%,0%);stroke-opacity:1;stroke-miterlimit:10;" d="M 229.988281 107.730469 L 209.351562 112.125 "/>
<path style="fill:none;stroke-width:1.2;stroke-linecap:butt;stroke-linejoin:miter;stroke:rgb(0%,0%,0%);stroke-opacity:1;stroke-miterlimit:10;" d="M 228.957031 113.027344 L 212.449219 116.542969 "/>
</g>
</svg>

<svg xmlns="http://www.w3.org/2000/svg" xmlns:xlink="http://www.w3.org/1999/xlink" width="300pt" height="300pt" viewBox="0 0 300 300"><defs><symbol overflow="visible"><path d="M.453 1.594v-7.938h4.5v7.938zm.5-.5h3.5v-6.938h-3.5zm0 0"/></symbol><symbol overflow="visible" id="a"><path d="M.89-6.563h3.766v.75h-2.89v1.938h2.61v.734h-2.61V0H.89zm0 0"/></symbol><symbol overflow="visible" id="b"><path d="M.89-6.563H2.08l2.906 5.485v-5.484h.86V0H4.656L1.75-5.484V0H.89zm0 0"/></symbol><symbol overflow="visible" id="c"><path d="M.89-6.563h.876v2.688H5v-2.688h.89V0H5v-3.125H1.766V0H.89zm0 0"/></symbol><symbol overflow="visible" id="d"><path d="M3.547-5.953c-.65 0-1.164.242-1.547.72-.375.48-.563 1.13-.563 1.952 0 .835.188 1.49.563 1.967.383.48.898.72 1.547.72.644 0 1.156-.24 1.53-.72.376-.476.564-1.132.564-1.968 0-.822-.187-1.474-.562-1.954-.375-.477-.887-.72-1.53-.72zm0-.734c.914 0 1.648.312 2.203.937.55.617.828 1.438.828 2.47 0 1.042-.277 1.87-.828 2.483-.555.617-1.29.922-2.203.922-.93 0-1.668-.305-2.22-.922C.774-1.41.5-2.237.5-3.28c0-1.033.273-1.853.828-2.47.55-.625 1.29-.938 2.22-.938zm0 0"/></symbol></defs><g><path fill="#fff" d="M0 0h300v300H0z"/><path d="M71.125 98.727l9.64 4.29" stroke-width="1.2" stroke="#3cc" stroke-miterlimit="10" fill="none"/><path d="M80.766 103.016l9.64 4.285" stroke-width="1.2" stroke="#000" stroke-miterlimit="10" fill="none"/><path d="M65.125 93.227h6v11h-6zm0 0" fill="#fff"/><use xlink:href="#a" x="65.125" y="101.89" fill="#3cc"/><path d="M90.406 107.3l17.067-12.405M95.03 110.078l13.654-9.926M92.617 128.285l-2.21-20.984M107.473 94.895l19.277 8.574M126.75 103.47l2.21 20.983M122.035 106.09l1.77 16.79M128.96 124.453l-17.065 12.41M128.96 124.453l19.282 8.578M111.895 136.863l-19.278-8.578M111.984 131.47l-15.42-6.86M148.242 133.03l9.137-5.276" stroke-width="1.2" stroke="#000" stroke-miterlimit="10" fill="none"/><path d="M157.38 127.754l9.132-5.277" stroke-width="1.2" stroke="#00f" stroke-miterlimit="10" fill="none"/><path d="M152.637 153.668l-4.395-20.637M157.05 150.57l-3.51-16.507" stroke-width="1.2" stroke="#000" stroke-miterlimit="10" fill="none"/><path d="M166.512 122.477l7.843 7.054" stroke-width="1.2" stroke="#00f" stroke-miterlimit="10" fill="none"/><path d="M174.355 129.53l7.844 7.06" stroke-width="1.2" stroke="#000" stroke-miterlimit="10" fill="none"/><path d="M159.512 116.977h14v11h-14zm0 0" fill="#fff"/><g fill="#00f"><use xlink:href="#b" x="159.512" y="125.64"/><use xlink:href="#c" x="166.489" y="125.64"/></g><path d="M182.2 136.59l-4.29 9.637" stroke-width="1.2" stroke="#000" stroke-miterlimit="10" fill="none"/><path d="M177.91 146.227l-4.29 9.64" stroke-width="1.2" stroke="#00f" stroke-miterlimit="10" fill="none"/><path d="M176.805 136.5l-3.43 7.71" stroke-width="1.2" stroke="#000" stroke-miterlimit="10" fill="none"/><path d="M173.375 144.21l-3.434 7.712" stroke-width="1.2" stroke="#00f" stroke-miterlimit="10" fill="none"/><path d="M182.2 136.59l20.636-4.395" stroke-width="1.2" stroke="#000" stroke-miterlimit="10" fill="none"/><path d="M173.62 155.867l-10.49-1.097" stroke-width="1.2" stroke="#00f" stroke-miterlimit="10" fill="none"/><path d="M163.13 154.77l-10.493-1.102" stroke-width="1.2" stroke="#000" stroke-miterlimit="10" fill="none"/><path d="M170.62 150.367h7v11h-7zm0 0" fill="#fff"/><use xlink:href="#b" x="170.621" y="159.03" fill="#00f"/><path d="M152.637 153.668l-14.114 15.687M138.523 169.355l-20.64-4.382M135.426 173.773l-16.512-3.503M145.05 189.422l-6.527-20.067M117.883 164.973l-10.56-18.27M103.766 180.66l14.117-15.687M107.324 146.703l-20.636 4.395M106.293 152l-16.508 3.516M86.688 151.098l-1.102 10.492" stroke-width="1.2" stroke="#000" stroke-miterlimit="10" fill="none"/><path d="M85.586 161.59l-1.098 10.492" stroke-width="1.2" stroke="#00f" stroke-miterlimit="10" fill="none"/><path d="M86.688 151.098L71 136.984" stroke-width="1.2" stroke="#000" stroke-miterlimit="10" fill="none"/><path d="M84.488 172.082l9.64 4.29" stroke-width="1.2" stroke="#00f" stroke-miterlimit="10" fill="none"/><path d="M94.13 176.37l9.636 4.29" stroke-width="1.2" stroke="#000" stroke-miterlimit="10" fill="none"/><path d="M77.488 166.582h14v11h-14zm0 0" fill="#fff"/><g fill="#00f"><use xlink:href="#b" x="77.488" y="175.245"/><use xlink:href="#c" x="84.466" y="175.245"/></g><path d="M103.766 180.66l3.265 10.03" stroke-width="1.2" stroke="#000" stroke-miterlimit="10" fill="none"/><path d="M107.03 190.69l3.263 10.037" stroke-width="1.2" stroke="#00f" stroke-miterlimit="10" fill="none"/><path d="M109.14 181.13l2.61 8.026" stroke-width="1.2" stroke="#000" stroke-miterlimit="10" fill="none"/><path d="M111.75 189.156l2.613 8.028M110.293 200.727l10.32 2.187" stroke-width="1.2" stroke="#00f" stroke-miterlimit="10" fill="none"/><path d="M120.613 202.914l10.32 2.19" stroke-width="1.2" stroke="#000" stroke-miterlimit="10" fill="none"/><path d="M107.293 195.227h7v11h-7zm0 0" fill="#fff"/><use xlink:href="#b" x="107.293" y="203.89" fill="#00f"/><path d="M130.934 205.105l14.117-15.683M128.656 200.215l11.29-12.547M71 136.984l4.383-20.64M66.582 133.89l3.504-16.515M50.934 143.512L71 136.984M75.383 116.344L59.695 102.23M59.695 102.23l-20.066 6.524M59.227 107.602l-16.055 5.222M39.63 108.754l-4.38 20.644M35.25 129.398l15.684 14.114M40.14 127.117l12.547 11.293M202.836 132.195l14.125 15.676M207.938 130.438l11.296 12.542M209.352 112.125l-6.516 20.07M216.96 147.87l20.638-4.393M237.598 143.477l6.515-20.07M233.527 139.938l5.21-16.055M244.113 123.406l10.317-2.195" stroke-width="1.2" stroke="#000" stroke-miterlimit="10" fill="none"/><path d="M254.43 121.21l10.32-2.198" stroke-width="1.2" stroke="#f00" stroke-miterlimit="10" fill="none"/><path d="M244.113 123.406l-14.125-15.676" stroke-width="1.2" stroke="#000" stroke-miterlimit="10" fill="none"/><path d="M257.75 113.512h15v11h-15zm0 0" fill="#fff"/><g fill="#f00"><use xlink:href="#d" x="257.75" y="122.175"/><use xlink:href="#c" x="265.092" y="122.175"/></g><path d="M229.988 107.73l-20.636 4.395M228.957 113.027l-16.508 3.516" stroke-width="1.2" stroke="#000" stroke-miterlimit="10" fill="none"/></g></svg>
